X:095
T: Robbin Powers' Fancy
N: O'Farrell's Pocket Companion v.2 (Sky ed. p.55)
M: 6/8
L: 1/8
R: jig
Q: 320
K: Edor
EFE EFA|B2A Bcd|DED FDF|ABA AGF|
EFE EFA|B2A B2c|dcd AFD|EFE E3 :|
d2d dcB|efe efg|fdB Bcd|ABG FED|
ded dcB|efe efg|fdB AFD|EFE E3 :|
